images/254571.svg

<?xml version="1.0" encoding="UTF-8"?>
<svg xmlns="http://www.w3.org/2000/svg" xmlns:xlink="http://www.w3.org/1999/xlink" width="300pt" height="300pt" viewBox="0 0 300 300" version="1.1">
<defs>
<g>
<symbol overflow="visible" id="glyph0-0">
<path style="stroke:none;" d="M 0.59375 2.125 L 0.59375 -8.46875 L 6.59375 -8.46875 L 6.59375 2.125 Z M 1.265625 1.453125 L 5.9375 1.453125 L 5.9375 -7.78125 L 1.265625 -7.78125 Z M 1.265625 1.453125 "/>
</symbol>
<symbol overflow="visible" id="glyph0-1">
<path style="stroke:none;" d="M 1.171875 -8.75 L 6.203125 -8.75 L 6.203125 -7.75 L 2.359375 -7.75 L 2.359375 -5.171875 L 5.828125 -5.171875 L 5.828125 -4.171875 L 2.359375 -4.171875 L 2.359375 0 L 1.171875 0 Z M 1.171875 -8.75 "/>
</symbol>
<symbol overflow="visible" id="glyph0-2">
<path style="stroke:none;" d="M 1.171875 -8.75 L 2.765625 -8.75 L 6.65625 -1.4375 L 6.65625 -8.75 L 7.796875 -8.75 L 7.796875 0 L 6.203125 0 L 2.328125 -7.3125 L 2.328125 0 L 1.171875 0 Z M 1.171875 -8.75 "/>
</symbol>
<symbol overflow="visible" id="glyph0-3">
<path style="stroke:none;" d="M 1.171875 -8.75 L 2.359375 -8.75 L 2.359375 -5.15625 L 6.65625 -5.15625 L 6.65625 -8.75 L 7.84375 -8.75 L 7.84375 0 L 6.65625 0 L 6.65625 -4.171875 L 2.359375 -4.171875 L 2.359375 0 L 1.171875 0 Z M 1.171875 -8.75 "/>
</symbol>
</g>
</defs>
<g id="surface28321">
<rect x="0" y="0" width="300" height="300" style="fill:rgb(100%,100%,100%);fill-opacity:1;stroke:none;"/>
<path style="fill:none;stroke-width:1.2;stroke-linecap:butt;stroke-linejoin:miter;stroke:rgb(20%,80%,80%);stroke-opacity:1;stroke-miterlimit:10;" d="M 50.152344 200.003906 L 55.527344 186.394531 "/>
<path style="fill:none;stroke-width:1.2;stroke-linecap:butt;stroke-linejoin:miter;stroke:rgb(0%,0%,0%);stroke-opacity:1;stroke-miterlimit:10;" d="M 55.527344 186.394531 L 60.902344 172.78125 "/>
<path style=" stroke:none;fill-rule:nonzero;fill:rgb(100%,100%,100%);fill-opacity:1;" d="M 43.152344 193.003906 L 50.152344 193.003906 L 50.152344 207.003906 L 43.152344 207.003906 Z M 43.152344 193.003906 "/>
<g style="fill:rgb(20%,80%,80%);fill-opacity:1;">
  <use xlink:href="#glyph0-1" x="43.152344" y="204.142578"/>
</g>
<path style="fill:none;stroke-width:1.2;stroke-linecap:butt;stroke-linejoin:miter;stroke:rgb(0%,0%,0%);stroke-opacity:1;stroke-miterlimit:10;" d="M 60.902344 172.78125 L 42.703125 149.863281 "/>
<path style="fill:none;stroke-width:1.2;stroke-linecap:butt;stroke-linejoin:miter;stroke:rgb(0%,0%,0%);stroke-opacity:1;stroke-miterlimit:10;" d="M 64.476562 166.207031 L 49.914062 147.871094 "/>
<path style="fill:none;stroke-width:1.2;stroke-linecap:butt;stroke-linejoin:miter;stroke:rgb(0%,0%,0%);stroke-opacity:1;stroke-miterlimit:10;" d="M 89.851562 168.480469 L 60.902344 172.78125 "/>
<path style="fill:none;stroke-width:1.2;stroke-linecap:butt;stroke-linejoin:miter;stroke:rgb(0%,0%,0%);stroke-opacity:1;stroke-miterlimit:10;" d="M 42.703125 149.863281 L 53.449219 122.640625 "/>
<path style="fill:none;stroke-width:1.2;stroke-linecap:butt;stroke-linejoin:miter;stroke:rgb(0%,0%,0%);stroke-opacity:1;stroke-miterlimit:10;" d="M 53.449219 122.640625 L 44.351562 111.179688 "/>
<path style="fill:none;stroke-width:1.2;stroke-linecap:butt;stroke-linejoin:miter;stroke:rgb(20%,80%,80%);stroke-opacity:1;stroke-miterlimit:10;" d="M 44.351562 111.179688 L 35.25 99.722656 "/>
<path style="fill:none;stroke-width:1.2;stroke-linecap:butt;stroke-linejoin:miter;stroke:rgb(0%,0%,0%);stroke-opacity:1;stroke-miterlimit:10;" d="M 53.449219 122.640625 L 82.398438 118.339844 "/>
<path style="fill:none;stroke-width:1.2;stroke-linecap:butt;stroke-linejoin:miter;stroke:rgb(0%,0%,0%);stroke-opacity:1;stroke-miterlimit:10;" d="M 57.359375 129.023438 L 80.515625 125.582031 "/>
<path style=" stroke:none;fill-rule:nonzero;fill:rgb(100%,100%,100%);fill-opacity:1;" d="M 28.25 92.722656 L 35.25 92.722656 L 35.25 106.722656 L 28.25 106.722656 Z M 28.25 92.722656 "/>
<g style="fill:rgb(20%,80%,80%);fill-opacity:1;">
  <use xlink:href="#glyph0-1" x="28.25" y="103.861328"/>
</g>
<path style="fill:none;stroke-width:1.2;stroke-linecap:butt;stroke-linejoin:miter;stroke:rgb(0%,0%,0%);stroke-opacity:1;stroke-miterlimit:10;" d="M 82.398438 118.339844 L 100.601562 141.257812 "/>
<path style="fill:none;stroke-width:1.2;stroke-linecap:butt;stroke-linejoin:miter;stroke:rgb(0%,0%,0%);stroke-opacity:1;stroke-miterlimit:10;" d="M 100.601562 141.257812 L 89.851562 168.480469 "/>
<path style="fill:none;stroke-width:1.2;stroke-linecap:butt;stroke-linejoin:miter;stroke:rgb(0%,0%,0%);stroke-opacity:1;stroke-miterlimit:10;" d="M 93.121094 141.453125 L 84.519531 163.230469 "/>
<path style="fill:none;stroke-width:1.2;stroke-linecap:butt;stroke-linejoin:miter;stroke:rgb(0%,0%,0%);stroke-opacity:1;stroke-miterlimit:10;" d="M 89.851562 168.480469 L 98.953125 179.941406 "/>
<path style="fill:none;stroke-width:1.2;stroke-linecap:butt;stroke-linejoin:miter;stroke:rgb(0%,0%,100%);stroke-opacity:1;stroke-miterlimit:10;" d="M 98.953125 179.941406 L 108.050781 191.402344 "/>
<path style="fill:none;stroke-width:1.2;stroke-linecap:butt;stroke-linejoin:miter;stroke:rgb(0%,0%,100%);stroke-opacity:1;stroke-miterlimit:10;" d="M 108.050781 191.402344 L 122.527344 189.25 "/>
<path style="fill:none;stroke-width:1.2;stroke-linecap:butt;stroke-linejoin:miter;stroke:rgb(0%,0%,0%);stroke-opacity:1;stroke-miterlimit:10;" d="M 122.527344 189.25 L 137 187.097656 "/>
<path style=" stroke:none;fill-rule:nonzero;fill:rgb(100%,100%,100%);fill-opacity:1;" d="M 99.050781 184.402344 L 117.050781 184.402344 L 117.050781 198.402344 L 99.050781 198.402344 Z M 99.050781 184.402344 "/>
<g style="fill:rgb(0%,0%,100%);fill-opacity:1;">
  <use xlink:href="#glyph0-2" x="99.050781" y="195.541016"/>
  <use xlink:href="#glyph0-3" x="108.027344" y="195.541016"/>
</g>
<path style="fill:none;stroke-width:1.2;stroke-linecap:butt;stroke-linejoin:miter;stroke:rgb(0%,0%,0%);stroke-opacity:1;stroke-miterlimit:10;" d="M 137 187.097656 L 146.101562 198.558594 "/>
<path style="fill:none;stroke-width:1.2;stroke-linecap:butt;stroke-linejoin:miter;stroke:rgb(0%,0%,100%);stroke-opacity:1;stroke-miterlimit:10;" d="M 146.101562 198.558594 L 155.203125 210.019531 "/>
<path style="fill:none;stroke-width:1.2;stroke-linecap:butt;stroke-linejoin:miter;stroke:rgb(0%,0%,0%);stroke-opacity:1;stroke-miterlimit:10;" d="M 144.214844 185.109375 L 151.496094 194.277344 "/>
<path style="fill:none;stroke-width:1.2;stroke-linecap:butt;stroke-linejoin:miter;stroke:rgb(0%,0%,100%);stroke-opacity:1;stroke-miterlimit:10;" d="M 151.496094 194.277344 L 158.773438 203.445312 "/>
<path style="fill:none;stroke-width:1.2;stroke-linecap:butt;stroke-linejoin:miter;stroke:rgb(0%,0%,0%);stroke-opacity:1;stroke-miterlimit:10;" d="M 147.75 159.875 L 137 187.097656 "/>
<path style="fill:none;stroke-width:1.2;stroke-linecap:butt;stroke-linejoin:miter;stroke:rgb(0%,0%,100%);stroke-opacity:1;stroke-miterlimit:10;" d="M 155.203125 210.019531 L 169.675781 207.867188 "/>
<path style="fill:none;stroke-width:1.2;stroke-linecap:butt;stroke-linejoin:miter;stroke:rgb(0%,0%,0%);stroke-opacity:1;stroke-miterlimit:10;" d="M 169.675781 207.867188 L 184.152344 205.714844 "/>
<path style=" stroke:none;fill-rule:nonzero;fill:rgb(100%,100%,100%);fill-opacity:1;" d="M 151.203125 203.019531 L 160.203125 203.019531 L 160.203125 217.019531 L 151.203125 217.019531 Z M 151.203125 203.019531 "/>
<g style="fill:rgb(0%,0%,100%);fill-opacity:1;">
  <use xlink:href="#glyph0-2" x="151.203125" y="214.158203"/>
</g>
<path style="fill:none;stroke-width:1.2;stroke-linecap:butt;stroke-linejoin:miter;stroke:rgb(0%,0%,0%);stroke-opacity:1;stroke-miterlimit:10;" d="M 184.152344 205.714844 L 194.898438 178.492188 "/>
<path style="fill:none;stroke-width:1.2;stroke-linecap:butt;stroke-linejoin:miter;stroke:rgb(0%,0%,0%);stroke-opacity:1;stroke-miterlimit:10;" d="M 191.632812 205.523438 L 200.230469 183.746094 "/>
<path style="fill:none;stroke-width:1.2;stroke-linecap:butt;stroke-linejoin:miter;stroke:rgb(0%,0%,0%);stroke-opacity:1;stroke-miterlimit:10;" d="M 202.351562 228.636719 L 184.152344 205.714844 "/>
<path style="fill:none;stroke-width:1.2;stroke-linecap:butt;stroke-linejoin:miter;stroke:rgb(0%,0%,0%);stroke-opacity:1;stroke-miterlimit:10;" d="M 194.898438 178.492188 L 176.699219 155.574219 "/>
<path style="fill:none;stroke-width:1.2;stroke-linecap:butt;stroke-linejoin:miter;stroke:rgb(0%,0%,0%);stroke-opacity:1;stroke-miterlimit:10;" d="M 194.898438 178.492188 L 223.847656 174.191406 "/>
<path style="fill:none;stroke-width:1.2;stroke-linecap:butt;stroke-linejoin:miter;stroke:rgb(0%,0%,0%);stroke-opacity:1;stroke-miterlimit:10;" d="M 176.699219 155.574219 L 147.75 159.875 "/>
<path style="fill:none;stroke-width:1.2;stroke-linecap:butt;stroke-linejoin:miter;stroke:rgb(0%,0%,0%);stroke-opacity:1;stroke-miterlimit:10;" d="M 174.816406 162.816406 L 151.65625 166.257812 "/>
<path style="fill:none;stroke-width:1.2;stroke-linecap:butt;stroke-linejoin:miter;stroke:rgb(0%,0%,0%);stroke-opacity:1;stroke-miterlimit:10;" d="M 223.847656 174.191406 L 232.949219 185.652344 "/>
<path style="fill:none;stroke-width:1.2;stroke-linecap:butt;stroke-linejoin:miter;stroke:rgb(0%,0%,100%);stroke-opacity:1;stroke-miterlimit:10;" d="M 232.949219 185.652344 L 242.050781 197.113281 "/>
<path style="fill:none;stroke-width:1.2;stroke-linecap:butt;stroke-linejoin:miter;stroke:rgb(0%,0%,0%);stroke-opacity:1;stroke-miterlimit:10;" d="M 220.277344 180.765625 L 227.558594 189.933594 "/>
<path style="fill:none;stroke-width:1.2;stroke-linecap:butt;stroke-linejoin:miter;stroke:rgb(0%,0%,100%);stroke-opacity:1;stroke-miterlimit:10;" d="M 227.558594 189.933594 L 234.835938 199.101562 "/>
<path style="fill:none;stroke-width:1.2;stroke-linecap:butt;stroke-linejoin:miter;stroke:rgb(0%,0%,0%);stroke-opacity:1;stroke-miterlimit:10;" d="M 223.847656 174.191406 L 234.597656 146.96875 "/>
<path style="fill:none;stroke-width:1.2;stroke-linecap:butt;stroke-linejoin:miter;stroke:rgb(0%,0%,100%);stroke-opacity:1;stroke-miterlimit:10;" d="M 242.050781 197.113281 L 231.300781 224.332031 "/>
<path style=" stroke:none;fill-rule:nonzero;fill:rgb(100%,100%,100%);fill-opacity:1;" d="M 238.050781 190.113281 L 247.050781 190.113281 L 247.050781 204.113281 L 238.050781 204.113281 Z M 238.050781 190.113281 "/>
<g style="fill:rgb(0%,0%,100%);fill-opacity:1;">
  <use xlink:href="#glyph0-2" x="238.050781" y="201.251953"/>
</g>
<path style="fill:none;stroke-width:1.2;stroke-linecap:butt;stroke-linejoin:miter;stroke:rgb(0%,0%,100%);stroke-opacity:1;stroke-miterlimit:10;" d="M 231.300781 224.332031 L 216.828125 226.484375 "/>
<path style="fill:none;stroke-width:1.2;stroke-linecap:butt;stroke-linejoin:miter;stroke:rgb(0%,0%,0%);stroke-opacity:1;stroke-miterlimit:10;" d="M 216.828125 226.484375 L 202.351562 228.636719 "/>
<path style="fill:none;stroke-width:1.2;stroke-linecap:butt;stroke-linejoin:miter;stroke:rgb(0%,0%,100%);stroke-opacity:1;stroke-miterlimit:10;" d="M 227.394531 217.953125 L 215.8125 219.671875 "/>
<path style="fill:none;stroke-width:1.2;stroke-linecap:butt;stroke-linejoin:miter;stroke:rgb(0%,0%,0%);stroke-opacity:1;stroke-miterlimit:10;" d="M 215.8125 219.671875 L 204.234375 221.394531 "/>
<path style=" stroke:none;fill-rule:nonzero;fill:rgb(100%,100%,100%);fill-opacity:1;" d="M 227.300781 217.332031 L 236.300781 217.332031 L 236.300781 231.332031 L 227.300781 231.332031 Z M 227.300781 217.332031 "/>
<g style="fill:rgb(0%,0%,100%);fill-opacity:1;">
  <use xlink:href="#glyph0-2" x="227.300781" y="228.470703"/>
</g>
<path style="fill:none;stroke-width:1.2;stroke-linecap:butt;stroke-linejoin:miter;stroke:rgb(0%,0%,0%);stroke-opacity:1;stroke-miterlimit:10;" d="M 234.597656 146.96875 L 218.894531 122.273438 "/>
<path style="fill:none;stroke-width:1.2;stroke-linecap:butt;stroke-linejoin:miter;stroke:rgb(0%,0%,0%);stroke-opacity:1;stroke-miterlimit:10;" d="M 238.839844 140.804688 L 226.273438 121.046875 "/>
<path style="fill:none;stroke-width:1.2;stroke-linecap:butt;stroke-linejoin:miter;stroke:rgb(0%,0%,0%);stroke-opacity:1;stroke-miterlimit:10;" d="M 262.9375 139.664062 L 234.597656 146.96875 "/>
<path style="fill:none;stroke-width:1.2;stroke-linecap:butt;stroke-linejoin:miter;stroke:rgb(0%,0%,0%);stroke-opacity:1;stroke-miterlimit:10;" d="M 218.894531 122.273438 L 228.210938 110.988281 "/>
<path style="fill:none;stroke-width:1.2;stroke-linecap:butt;stroke-linejoin:miter;stroke:rgb(0%,0%,100%);stroke-opacity:1;stroke-miterlimit:10;" d="M 228.210938 110.988281 L 237.527344 99.707031 "/>
<path style="fill:none;stroke-width:1.2;stroke-linecap:butt;stroke-linejoin:miter;stroke:rgb(0%,0%,100%);stroke-opacity:1;stroke-miterlimit:10;" d="M 237.527344 99.707031 L 264.75 110.453125 "/>
<path style="fill:none;stroke-width:1.2;stroke-linecap:butt;stroke-linejoin:miter;stroke:rgb(0%,0%,100%);stroke-opacity:1;stroke-miterlimit:10;" d="M 237.527344 99.707031 L 233.875 85.535156 "/>
<path style="fill:none;stroke-width:1.2;stroke-linecap:butt;stroke-linejoin:miter;stroke:rgb(0%,0%,0%);stroke-opacity:1;stroke-miterlimit:10;" d="M 233.875 85.535156 L 230.222656 71.363281 "/>
<path style=" stroke:none;fill-rule:nonzero;fill:rgb(100%,100%,100%);fill-opacity:1;" d="M 233.527344 92.707031 L 242.527344 92.707031 L 242.527344 106.707031 L 233.527344 106.707031 Z M 233.527344 92.707031 "/>
<g style="fill:rgb(0%,0%,100%);fill-opacity:1;">
  <use xlink:href="#glyph0-2" x="233.527344" y="103.845703"/>
</g>
<path style="fill:none;stroke-width:1.2;stroke-linecap:butt;stroke-linejoin:miter;stroke:rgb(0%,0%,100%);stroke-opacity:1;stroke-miterlimit:10;" d="M 264.75 110.453125 L 263.84375 125.058594 "/>
<path style="fill:none;stroke-width:1.2;stroke-linecap:butt;stroke-linejoin:miter;stroke:rgb(0%,0%,0%);stroke-opacity:1;stroke-miterlimit:10;" d="M 263.84375 125.058594 L 262.9375 139.664062 "/>
<path style="fill:none;stroke-width:1.2;stroke-linecap:butt;stroke-linejoin:miter;stroke:rgb(0%,0%,100%);stroke-opacity:1;stroke-miterlimit:10;" d="M 257.695312 112.949219 L 256.972656 124.632812 "/>
<path style="fill:none;stroke-width:1.2;stroke-linecap:butt;stroke-linejoin:miter;stroke:rgb(0%,0%,0%);stroke-opacity:1;stroke-miterlimit:10;" d="M 256.972656 124.632812 L 256.246094 136.316406 "/>
<path style=" stroke:none;fill-rule:nonzero;fill:rgb(100%,100%,100%);fill-opacity:1;" d="M 260.75 103.453125 L 269.75 103.453125 L 269.75 117.453125 L 260.75 117.453125 Z M 260.75 103.453125 "/>
<g style="fill:rgb(0%,0%,100%);fill-opacity:1;">
  <use xlink:href="#glyph0-2" x="260.75" y="114.591797"/>
</g>
</g>
</svg>

<svg xmlns="http://www.w3.org/2000/svg" xmlns:xlink="http://www.w3.org/1999/xlink" width="300pt" height="300pt" viewBox="0 0 300 300"><defs><symbol overflow="visible"><path d="M.594 2.125V-8.47h6V2.126zm.672-.672h4.671V-7.78h-4.67zm0 0"/></symbol><symbol overflow="visible" id="a"><path d="M1.172-8.75h5.03v1H2.36v2.578h3.468v1h-3.47V0H1.173zm0 0"/></symbol><symbol overflow="visible" id="b"><path d="M1.172-8.75h1.594l3.89 7.313V-8.75h1.14V0H6.204L2.328-7.313V0H1.172zm0 0"/></symbol><symbol overflow="visible" id="c"><path d="M1.172-8.75H2.36v3.594h4.296V-8.75h1.188V0H6.656v-4.172H2.36V0H1.17zm0 0"/></symbol></defs><g><path fill="#fff" d="M0 0h300v300H0z"/><path d="M50.152 200.004l5.375-13.61" stroke-width="1.2" stroke="#3cc" stroke-miterlimit="10" fill="none"/><path d="M55.527 186.395l5.375-13.614" stroke-width="1.2" stroke="#000" stroke-miterlimit="10" fill="none"/><path d="M43.152 193.004h7v14h-7zm0 0" fill="#fff"/><use xlink:href="#a" x="43.152" y="204.143" fill="#3cc"/><path d="M60.902 172.78l-18.2-22.917M64.477 166.207L49.914 147.87M89.852 168.48l-28.95 4.3M42.703 149.863L53.45 122.64M53.45 122.64l-9.098-11.46" stroke-width="1.2" stroke="#000" stroke-miterlimit="10" fill="none"/><path d="M44.352 111.18L35.25 99.723" stroke-width="1.2" stroke="#3cc" stroke-miterlimit="10" fill="none"/><path d="M53.45 122.64l28.948-4.3M57.36 129.023l23.156-3.44" stroke-width="1.2" stroke="#000" stroke-miterlimit="10" fill="none"/><path d="M28.25 92.723h7v14h-7zm0 0" fill="#fff"/><use xlink:href="#a" x="28.25" y="103.861" fill="#3cc"/><path d="M82.398 118.34l18.204 22.918M100.602 141.258l-10.75 27.222M93.12 141.453l-8.6 21.777M89.852 168.48l9.1 11.46" stroke-width="1.2" stroke="#000" stroke-miterlimit="10" fill="none"/><path d="M98.953 179.94l9.098 11.462M108.05 191.402l14.477-2.152" stroke-width="1.2" stroke="#00f" stroke-miterlimit="10" fill="none"/><path d="M122.527 189.25L137 187.098" stroke-width="1.2" stroke="#000" stroke-miterlimit="10" fill="none"/><path d="M99.05 184.402h18v14h-18zm0 0" fill="#fff"/><g fill="#00f"><use xlink:href="#b" x="99.051" y="195.541"/><use xlink:href="#c" x="108.027" y="195.541"/></g><path d="M137 187.098l9.102 11.46" stroke-width="1.2" stroke="#000" stroke-miterlimit="10" fill="none"/><path d="M146.102 198.56l9.1 11.46" stroke-width="1.2" stroke="#00f" stroke-miterlimit="10" fill="none"/><path d="M144.215 185.11l7.28 9.167" stroke-width="1.2" stroke="#000" stroke-miterlimit="10" fill="none"/><path d="M151.496 194.277l7.277 9.168" stroke-width="1.2" stroke="#00f" stroke-miterlimit="10" fill="none"/><path d="M147.75 159.875L137 187.098" stroke-width="1.2" stroke="#000" stroke-miterlimit="10" fill="none"/><path d="M155.203 210.02l14.473-2.153" stroke-width="1.2" stroke="#00f" stroke-miterlimit="10" fill="none"/><path d="M169.676 207.867l14.476-2.152" stroke-width="1.2" stroke="#000" stroke-miterlimit="10" fill="none"/><path d="M151.203 203.02h9v14h-9zm0 0" fill="#fff"/><use xlink:href="#b" x="151.203" y="214.158" fill="#00f"/><path d="M184.152 205.715l10.746-27.223M191.633 205.523l8.597-21.777M202.352 228.637l-18.2-22.922M194.898 178.492l-18.2-22.918M194.898 178.492l28.95-4.3M176.7 155.574l-28.95 4.3M174.816 162.816l-23.16 3.442M223.848 174.19l9.1 11.462" stroke-width="1.2" stroke="#000" stroke-miterlimit="10" fill="none"/><path d="M232.95 185.652l9.1 11.46" stroke-width="1.2" stroke="#00f" stroke-miterlimit="10" fill="none"/><path d="M220.277 180.766l7.282 9.168" stroke-width="1.2" stroke="#000" stroke-miterlimit="10" fill="none"/><path d="M227.56 189.934l7.276 9.168" stroke-width="1.2" stroke="#00f" stroke-miterlimit="10" fill="none"/><path d="M223.848 174.19l10.75-27.22" stroke-width="1.2" stroke="#000" stroke-miterlimit="10" fill="none"/><path d="M242.05 197.113l-10.75 27.22" stroke-width="1.2" stroke="#00f" stroke-miterlimit="10" fill="none"/><path d="M238.05 190.113h9v14h-9zm0 0" fill="#fff"/><use xlink:href="#b" x="238.051" y="201.252" fill="#00f"/><path d="M231.3 224.332l-14.472 2.152" stroke-width="1.2" stroke="#00f" stroke-miterlimit="10" fill="none"/><path d="M216.828 226.484l-14.476 2.153" stroke-width="1.2" stroke="#000" stroke-miterlimit="10" fill="none"/><path d="M227.395 217.953l-11.583 1.72" stroke-width="1.2" stroke="#00f" stroke-miterlimit="10" fill="none"/><path d="M215.813 219.672l-11.58 1.723" stroke-width="1.2" stroke="#000" stroke-miterlimit="10" fill="none"/><path d="M227.3 217.332h9v14h-9zm0 0" fill="#fff"/><use xlink:href="#b" x="227.301" y="228.471" fill="#00f"/><path d="M234.598 146.97l-15.703-24.697M238.84 140.805l-12.567-19.758M262.938 139.664l-28.34 7.305M218.895 122.273l9.316-11.285" stroke-width="1.2" stroke="#000" stroke-miterlimit="10" fill="none"/><path d="M228.21 110.988l9.317-11.28M237.527 99.707l27.223 10.746M237.527 99.707l-3.652-14.172" stroke-width="1.2" stroke="#00f" stroke-miterlimit="10" fill="none"/><path d="M233.875 85.535l-3.652-14.172" stroke-width="1.2" stroke="#000" stroke-miterlimit="10" fill="none"/><path d="M233.527 92.707h9v14h-9zm0 0" fill="#fff"/><use xlink:href="#b" x="233.527" y="103.846" fill="#00f"/><path d="M264.75 110.453l-.906 14.606" stroke-width="1.2" stroke="#00f" stroke-miterlimit="10" fill="none"/><path d="M263.844 125.06l-.906 14.604" stroke-width="1.2" stroke="#000" stroke-miterlimit="10" fill="none"/><path d="M257.695 112.95l-.722 11.683" stroke-width="1.2" stroke="#00f" stroke-miterlimit="10" fill="none"/><path d="M256.973 124.633l-.727 11.683" stroke-width="1.2" stroke="#000" stroke-miterlimit="10" fill="none"/><path d="M260.75 103.453h9v14h-9zm0 0" fill="#fff"/><use xlink:href="#b" x="260.75" y="114.592" fill="#00f"/></g></svg>
